X: 41146
T: Trip We Took Over The Mountain, The
R: waltz
M: 3/4
K: Gmajor
GE|:D2 G2 GA|B2 G3 B|AB c2 A2|f3 g af|g2 d2 de|
d2 cc/c/ AF|1 G3 B AG|F3 G EF:|2 G3 B AF|G6||
|:g2 d2 gf|g3 a2 g|fe d2 de|=f3 g a^f|g2 d2 de|
d2 cc/c/ AF|1 G3 B AG|F6:|2 G3 B AF|G4 GE||

